!!!COM: Palestrina, Giovanni Perluigi da
!!!OPR: Brevis
!!!OTL: Credo
**kern	**kern	**kern	**kern
*Ibass	*Itenor	*Icalto	*Icant
!Bassus	!Tenor	!Altus	!Cantus
*clefF4	*clefGv2	*clefG2	*clefG2
*k[b-]	*k[b-]	*k[b-]	*k[b-]
*F:ion	*F:ion	*F:ion	*F:ion
*M4/2	*M4/2	*M4/2	*M4/2
=1	=1	=1	=1
0r	0r	1r	0cc
.	.	[1f	.
=2	=2	=2	=2
0r	0r	1f]	1.a
.	.	[1d	.
.	.	.	2a
=3	=3	=3	=3
0r	0r	2d]	2b-
.	.	2e	2cc
.	.	2f	1dd
.	.	2g	.
=4	=4	=4	=4
0r	0r	1a	2cc
.	.	.	2cc
.	.	2g	2dd
.	.	2g	2ee
=5	=5	=5	=5
0r	0r	2a	1ff
.	.	2b	.
.	.	1cc	2ee
.	.	.	2cc
=6	=6	=6	=6
0r	0r	2.b-	2.dd
.	.	4a	4cc
.	.	2g	2b-
.	.	[2f	2a
=7	=7	=7	=7
1r	1.c	2f]	1g
.	.	2e	.
[1F	.	2f	1a
.	2c	[2a	.
=8	=8	=8	=8
2F]	2d	2a]	0r
2F	2c	2a	.
1G	2B-	1b-	.
.	[2d	.	.
=9	=9	=9	=9
2E	4d]	2g	0r
.	4c	.	.
2F	1c	2a	.
2D	.	2f	.
2D	2B	2f	.
=10	=10	=10	=10
2C	1c	2e	2r
1F	.	1a	1cc
.	[1f	.	.
2F	.	2a	2cc
=11	=11	=11	=11
2B-	2f]	2d	2dd
2A	2f	2a	2cc
1G	2.g	1d	2b
.	.	.	[2dd
.	4f	.	.
=12	=12	=12	=12
2A	2e	1a	4dd]
.	.	.	4cc
2F	2f	.	1cc
1G	2d	2.g	.
.	2d	.	2b
.	.	4f	.
=13	=13	=13	=13
0C	2c	2.e	[0cc
.	1g	.	.
.	.	4d	.
.	.	1c	.
.	2e	.	.
=14	=14	=14	=14
2r	2f	0r	0cc]
1c	2g	.	.
.	2.e	.	.
2A	.	.	.
.	4e	.	.
=15	=15	=15	=15
2B	2d	0r	2r
2c	1e	.	1cc
2.A	.	.	.
.	2f#	.	2a
4A	.	.	.
=16	=16	=16	=16
2G	4g	0r	2b
.	4f	.	.
1A	4e	.	2cc
.	4d	.	.
.	2c	.	2.a
2F	[2f	.	.
.	.	.	4a
=17	=17	=17	=17
2.c	2f]	1r	1g
.	2e	.	.
4B-	.	.	.
2A	1f	2r	2a
2B-	.	[2d	2f
=18	=18	=18	=18
1G	1r	4d]	1b-
.	.	4d	.
.	.	2e	.
1F	2r	[1f	2a
.	[2A	.	[2cc
=19	=19	=19	=19
0r	4A]	1f]	4cc]
.	4A	.	4cc
.	2B	.	2dd
.	2c	2e	2ee
.	2c	[2a	2ee
=20	=20	=20	=20
0r	2.d	4a]	2.ff
.	.	4g	.
.	.	1f	.
.	4c	.	4ee
.	2B	.	2dd
.	2c	2e	[2cc
=21	=21	=21	=21
2r	1G	1d	2cc]
1G	.	.	4b-
.	.	.	4a
.	1r	1g	2b
2G	.	.	2b
=22	=22	=22	=22
1A	1r	1e	2cc
.	.	.	1a
1F	2r	2.f	.
.	[2d	.	2a
.	.	4e	.
=23	=23	=23	=23
1B-	2d]	2d	2f
.	2d	2G	2g
1A	1e	1c	1a
=24	=24	=24	=24
2r	1c	1A	1a
1A	.	.	.
.	1f	1r	2r
2F	.	.	[2dd
=25	=25	=25	=25
2G	1e	0r	2dd]
2A	.	.	2cc
2.D	2r	.	1ff
.	[2d	.	.
4E	.	.	.
=26	=26	=26	=26
4F	2d]	0r	2ff
4G	.	.	.
2A	2c	.	2ee
4D	1f	.	2dd
4E	.	.	.
4F	.	.	2dd
4G	.	.	.
=27	=27	=27	=27
4A	2f	1r	1cc
4B	.	.	.
1c	2e	.	.
.	2d	1g	2r
2B	2d	.	2dd
=28	=28	=28	=28
1c	1c	2g	2ee
.	.	2g	2ee
1F	1r	1a	1ff
=29	=29	=29	=29
2r	1c	1g	0ee
2c	.	.	.
2A	2c	1r	.
2A	2c	.	.
=30	=30	=30	=30
2B-	2d	1r	1r
2B-	2d	.	.
2A	2e	2r	[1cc
[2F	[2f	[2a	.
=31	=31	=31	=31
2F]	2f]	2a]	2cc]
2F	2f	2a	2cc
1B-	1f	1b-	1dd
=32	=32	=32	=32
2.F	2f	1.a	1.cc
.	2f	.	.
4G	.	.	.
2A	2e	.	.
2B-	[2d	2f	2b-
=33	=33	=33	=33
2F	4d]	2f	2a
.	4c	.	.
2A	1c	2c	2f
1G	.	1d	1g
.	2B	.	.
=34	=34	=34	=34
0C	1c	0e	0g
.	2.c	.	.
.	4c	.	.
=35	=35	=35	=35
0r	2B	2.g	0r
.	2c	.	.
.	.	4e	.
.	2d	2f	.
.	2c	2g	.
=36	=36	=36	=36
0r	2f	2a	0r
.	2e	2g	.
.	2.d	2b-	.
.	.	2a	.
.	4c	.	.
=37	=37	=37	=37
1r	2B-	2.g	0r
.	2G	.	.
.	.	4f	.
2r	1A	2e	.
[2c	.	2c	.
=38	=38	=38	=38
2c]	1G	1d	1r
2B	.	.	.
2.c	1r	1e	2r
.	.	.	[2cc
4B-	.	.	.
=39	=39	=39	=39
2A	1r	2f	2cc]
2.G	.	2g	2b
.	2r	2.a	2.cc
4F	.	.	.
[2F	2c	.	.
.	.	4g	4b-
=40	=40	=40	=40
2F]	2c	2f	2a
2E	2c	1c	2.g
2F	2A	.	.
.	.	.	4f
2BB-	2B-	2d	[2f
=41	=41	=41	=41
1C	2G	1c	2f]
.	2G	.	2e
1F	2F	2r	1f
.	2A	2c	.
=42	=42	=42	=42
1r	2B-	2d	1r
.	2c	2e	.
2r	1d	1f	1a
2D	.	.	.
=43	=43	=43	=43
2F	1r	2d	2a
2G	.	2d	2b
1A	2r	1c	1cc
.	2c	.	.
=44	=44	=44	=44
2F	2c	1r	2a
2F	2d	.	2a
[1c	1e	2r	1g
.	.	2g	.
=45	=45	=45	=45
1c]	2e	2g	2r
.	2e	2g	2cc
1r	1f	1a	2cc
.	.	.	2dd
=46	=46	=46	=46
2r	1c	2g	1ee
2c	.	2g	.
1c	1r	1g	2ee
.	.	.	2ee
=47	=47	=47	=47
1F	2r	1a	1ff
.	2c	.	.
2C	1c	2r	1ee
[2c	.	2g	.
=48	=48	=48	=48
2c]	2G	1g	1dd
2B-	2d	.	.
2.A	1e	[1c	2r
.	.	.	2cc
4G	.	.	.
=49	=49	=49	=49
2.F	1.f	2c]	1cc
.	.	2c	.
4E	.	.	.
2D	.	2d	2f
2C	2e	2e	2a
=50	=50	=50	=50
0BB-	0d	0f	0b-
=51	=51	=51	=51
1F	1c	1f	1a
1r	1r	1r	1r
=52	=52	=52	=52
1F	1c	1f	1a
2F	2c	2f	2a
2F	2c	2f	2a
=53	=53	=53	=53
1D	1d	1f	1a
1C	1e	1g	1cc
=54	=54	=54	=54
1F	2f	2a	1cc
.	2c	2a	.
2r	1f	1a	2r
2F	.	.	2cc
=55	=55	=55	=55
1c	2e	2g	1cc
.	2e	2g	.
2F	1f	1a	2cc
2F	.	.	2cc
=56	=56	=56	=56
1B-	1d	1f	1dd
1F	[1f	[1a	1cc
=57	=57	=57	=57
0r	2f]	2a]	2.cc
.	2e	2g	.
.	.	.	4cc
.	2d	2f	2b-
.	2c	2e	2a
=58	=58	=58	=58
2r	2B-	2d	2g
2.c	2A	2c	2f#
.	1G	1d	1g
8B-	.	.	.
8A	.	.	.
2B	.	.	.
=59	=59	=59	=59
1c	2r	1e	1g
.	2.c	.	.
1G	.	1d	1g
.	8B-	.	.
.	8A	.	.
.	2B	.	.
=60	=60	=60	=60
1r	1c	1e	1g
[1F	2A	[1f	[1a
.	[2d	.	.
=61	=61	=61	=61
1F]	2d]	2f]	1a]
.	1c	2e	.
1G	.	1d	1g
.	2B	.	.
=62	=62	=62	=62
0C	0c	0e	0g
=63	=63	=63	=63
1C	1e	1g	1.cc
1F	1f	1a	.
.	.	.	2cc
=64	=64	=64	=64
1G	1d	1g	1b-
1A	1c	1e	1a
=65	=65	=65	=65
2.F	2c	2f	2a
.	2c	2f	2a
4G	.	.	.
2A	2c	2e	2a
2A	2c	2f	2a
=66	=66	=66	=66
1B-	1d	1g	1dd
2A	2e	1a	1cc
2A	2e	.	.
=67	=67	=67	=67
2A	2f	0r	0r
2B	2d	.	.
2c	2e	.	.
2A	[2f	.	.
=68	=68	=68	=68
1G	4f]	1b-	1r
.	8e	.	.
.	8d	.	.
.	2e	.	.
1F	1f	1a	1ff
=69	=69	=69	=69
0r	1c	2.g	1ee
.	.	4g	.
.	1r	2g	2.dd
.	.	2d	.
.	.	.	4dd
=70	=70	=70	=70
1r	0r	2.f	2dd
.	.	.	1cc
.	.	4e	.
2r	.	1d	.
2G	.	.	2b
=71	=71	=71	=71
2.A	2r	0c	1cc
.	2c	.	.
4B-	.	.	.
1c	2.e	.	2r
.	.	.	2g
.	4f	.	.
=72	=72	=72	=72
1G	1g	0r	2b-
.	.	.	2cc
1B-	1d	.	1dd
=73	=73	=73	=73
2A	1f	0r	0cc
2F	.	.	.
1A	2e	.	.
.	2c	.	.
=74	=74	=74	=74
2G	1e	0r	0r
2c	.	.	.
2B-	2d	.	.
2G	2g	.	.
=75	=75	=75	=75
2A	2f	2r	0r
1B-	2.d	2f	.
.	.	2g	.
.	4e	.	.
2A	[2f	2a	.
=76	=76	=76	=76
2B-	2f]	2f	1r
2G	2e	2g	.
2F	1f	1a	1cc
2A	.	.	.
=77	=77	=77	=77
2B	0r	1g	2dd
2c	.	.	2ee
2A	.	2r	2cc
2B-	.	2g	2dd
=78	=78	=78	=78
1c	0r	2g	1ee
.	.	2g	.
1G	.	2.b-	2dd
.	.	.	2dd
.	.	4a	.
=79	=79	=79	=79
0r	0r	2g	2dd
.	.	4f	2dd
.	.	4e	.
.	.	2d	2.ff
.	.	[2f	.
.	.	.	4ee
=80	=80	=80	=80
0r	1r	4f]	2dd
.	.	4g	.
.	.	2.a	2.cc
.	1F	.	.
.	.	4g	4b-
.	.	[2f	2a
=81	=81	=81	=81
1C	2.c	2f]	2g
.	.	2e	2g
.	4c	.	.
2.F	2c	2f	2.a
.	2c	2c	.
4F	.	.	4a
=82	=82	=82	=82
2F	2A	2.f	2a
2F	2A	.	2a
.	.	4f	.
2D	1d	2f	2a
2D	.	2f	2a
=83	=83	=83	=83
1G	2r	2d	1b-
.	2G	2d	.
2r	2.c	1e	1g
2C	.	.	.
.	4c	.	.
=84	=84	=84	=84
2.F	2c	2r	2.a
.	2c	2c	.
4F	.	.	4a
2F	1A	2.f	2a
2F	.	.	2a
.	.	4f	.
=85	=85	=85	=85
1D	1d	2f	1a
.	.	2f	.
1G	1B-	2d	1b-
.	.	2e	.
=86	=86	=86	=86
1F	2c	2f	2a
.	2F	2a	2cc
1r	2F	2a	2cc
.	2G	2g	2b-
=87	=87	=87	=87
1r	2A	2f	2a
.	2F	2f	2a
2r	1c	1e	1g
[2c	.	.	.
=88	=88	=88	=88
2c]	1G	1d	2r
2B	.	.	1g
1c	2r	1e	.
.	[2c	.	2g
=89	=89	=89	=89
1G	2c]	1d	1g
.	2B	.	.
1C	1c	2e	2g
.	.	2e	2g
=90	=90	=90	=90
1F	2c	2f	1a
.	2A	2f	.
1A	2c	2e	2a
.	2c	2f#	[2cc
=91	=91	=91	=91
0G	0d	0g	2cc]
.	.	.	4b-
.	.	.	4a
.	.	.	1b
=92	=92	=92	=92
1C	0c	2r	0cc
.	.	1g	.
2r	.	.	.
[2c	.	2g	.
=93	=93	=93	=93
2c]	0r	2e	2r
2c	.	2e	1cc
2A	.	1c	.
2A	.	.	2cc
=94	=94	=94	=94
1F	0r	1f	2a
.	.	.	2a
1B-	.	1d	1f
=95	=95	=95	=95
1G	0r	1.g	1b-
[1c	.	.	1g
.	.	2e	.
=96	=96	=96	=96
2c]	1r	0e	1.cc
2A	.	.	.
1A	2r	.	.
.	[2c	.	2a
=97	=97	=97	=97
1F	2c]	2r	1a
.	2d	2a	.
2G	1e	2g	1r
[2A	.	2e	.
=98	=98	=98	=98
2A]	2c	1a	0r
2F	1f	.	.
1c	.	1g	.
.	2e	.	.
=99	=99	=99	=99
2F	1f	2f	1.cc
1F	.	1a	.
.	2.f	.	.
2F	.	2a	2cc
.	4f	.	.
=100	=100	=100	=100
2A	2e	2a	2cc
2A	2c	2f	2a
2.G	2d	1g	2.b-
.	2e	.	.
4G	.	.	4b-
=101	=101	=101	=101
2F	1f	2c	2a
1B-	.	2d	1dd
.	2f	2B-	.
2A	2f	2c	2cc
=102	=102	=102	=102
1G	1g	2d	1b-
.	.	2e	.
2F	1c	1f	1a
[2F	.	.	.
=103	=103	=103	=103
2F]	2r	2r	2r
2D	1d	1a	1ff
1A	.	.	.
.	2c	2a	2ee
=104	=104	=104	=104
1D	1f	1a	1dd
1r	2e	2g	2cc
.	2d	2f	2b-
=105	=105	=105	=105
1r	2c	2e	2a
.	2B-	2d	2g
2r	1A	1e	2a
[2A	.	.	[2cc
=106	=106	=106	=106
2A]	1r	2.f	2cc]
2F	.	.	2a
.	.	4e	.
2G	2r	2d	2b-
2A	2f	2c	2cc
=107	=107	=107	=107
1B-	2f	2f	1dd
.	2d	2g	.
1A	2e	1a	2cc
.	2e	.	2cc
=108	=108	=108	=108
0r	2.f	2r	2cc
.	.	2f	2a
.	4e	.	.
.	2d	2f	2b-
.	2c	2e	2cc
=109	=109	=109	=109
1r	1B-	2f	1dd
.	.	2g	.
[1F	2A	2a	1cc
.	[2c	2a	.
=110	=110	=110	=110
2F]	2c]	2.f	2.a
2F	2c	.	.
.	.	4f	4a
2F	2c	2f	2a
2F	2c	2f	2a
=111	=111	=111	=111
1C	1.c	1e	1g
2.F	.	[1f	2a
.	2A	.	[2cc
4E-	.	.	.
=112	=112	=112	=112
2D	1d	2f]	2cc]
2BB-	.	2f	1b-
1F	1c	1f	.
.	.	.	2a
=113	=113	=113	=113
1BB-	1B-	0d	0b-
1B-	2r	.	.
.	2d	.	.
=114	=114	=114	=114
2G	2c	0r	0r
2F	2d	.	.
1G	1B-	.	.
=115	=115	=115	=115
2F	2A	2r	1r
2E	2G	2g	.
2D	2A	2f	1ff
2D	2B	2d	.
=116	=116	=116	=116
1C	1c	2.e	2ee
.	.	.	2cc
.	.	4e	.
1r	1r	2f	2.dd
.	.	2g	.
.	.	.	4dd
=117	=117	=117	=117
1r	0r	2a	2cc
.	.	1g	2b-
1D	.	.	2a
.	.	2f#	2a
=118	=118	=118	=118
2G	2r	1g	1g
2G	2G	.	.
2F	2d	1r	1r
2G	2d	.	.
=119	=119	=119	=119
2A	2c	0r	0r
2B	2d	.	.
1c	2.e	.	.
.	4f	.	.
=120	=120	=120	=120
2G	1g	0r	2r
1B-	.	.	1dd
.	2d	.	.
2A	[2f	.	2cc
=121	=121	=121	=121
2F	2f]	0r	2a
2G	2e-	.	2b-
2A	2c	.	2cc
2B-	2d	.	2b-
=122	=122	=122	=122
2c	2e-	1r	2g
2A	2c	.	2a
1G	2d	2r	1b-
.	2d	[2g	.
=123	=123	=123	=123
1D	1d	2g]	1a
.	.	4f	.
.	.	4e	.
1D	2A	1f#	2r
.	[2d	.	2a
=124	=124	=124	=124
1G	2d]	1g	1b
.	2d	.	.
1F	1f	1a	1cc
=125	=125	=125	=125
2C	2e	2g	2cc
1F	1f	1a	1cc
2F	2f	2a	2cc
=126	=126	=126	=126
2D	2f	2a	2dd
2D	2f	2a	2dd
1BB-	1f	1b-	1dd
=127	=127	=127	=127
1F	1f	2a	2cc
.	.	2a	2cc
2G	2d	2g	2b-
2A	2c	[2f	[2a
=128	=128	=128	=128
1B-	1d	2f]	2a]
.	.	4e	2g
.	.	4d	.
1A	2e	2c#	[1a
.	2A	2e	.
=129	=129	=129	=129
2r	1d	1f	1a]
2D	.	.	.
1A	2c	2e	2r
.	2c	2f#	2a
=130	=130	=130	=130
1G	2d	1g	1b-
.	2e	.	.
1F	2.f	1c	2a
.	.	.	[2cc
.	4e	.	.
=131	=131	=131	=131
2.G	4d	1.g	2cc]
.	4c	.	.
.	2.d	.	2b-
4F	.	.	.
2E	.	.	2g
.	4c	.	.
2F	[2c	4f	[2a
.	.	4e	.
=132	=132	=132	=132
2D	2c]	2f	2a]
2D	2B	2f	4g
.	.	.	4f
1C	[1c	1e	2a
.	.	.	2g
=133	=133	=133	=133
2r	1c]	2r	1g
2.c	.	2.e	.
.	2r	.	1r
4A	.	4f	.
2B	[2g	2d	.
=134	=134	=134	=134
2c	4g]	2e	1r
.	4e	.	.
2A	2f#	2c	.
2G	2g	2d	2r
2A	2e	[2a	[2cc
=135	=135	=135	=135
2F	2f	2a]	4cc]
.	.	.	4a
2G	2d	4g	2b
.	.	4f	.
2A	2c	2e	2cc
2F	2d	2f	2a
=136	=136	=136	=136
2E	2e	2g	2g
2D	2.f	2f	2a
1G	.	2r	2.b-
.	4d	.	.
.	2e	[2b-	.
.	.	.	4cc
=137	=137	=137	=137
1F	1f	4b-]	4dd
.	.	4g	4ee
.	.	2a	2.ff
1r	2B-	2b-	.
.	.	.	4dd
.	2c	2g	2ee
=138	=138	=138	=138
2r	2d	2f	2ff
2.c	2c	2g	2ee
.	1r	2a	2cc
4A	.	.	.
2B	.	[2g	2dd
=139	=139	=139	=139
2c	1r	4g]	2ee
.	.	4e	.
2.B-	.	2f	2.dd
.	2r	2g	.
4G	.	.	4b-
2A	[2f	2f	2cc
=140	=140	=140	=140
2B-	4f]	2d	2dd
.	4d	.	.
2.A	2e	1a	2.cc
.	2f	.	.
4F	.	.	4a
2G	[2e	4g	2b
.	.	4f	.
=141	=141	=141	=141
2A	4e]	2e	2cc
.	4c	.	.
2.G	2d	1g	2b-
.	2e	.	2g
4E	.	.	.
2F	[2d	4f	2a
.	.	4e	.
=142	=142	=142	=142
2G	4d]	2d	2b-
.	4B-	.	.
2F	2c	1f	2.a
2D	2d	.	.
.	.	.	4f
2E	2c	4e	2g
.	.	4d	.
=143	=143	=143	=143
2F	2A	2c	2a
2BB-	2.B-	1d	2.g
1D	.	.	.
.	4A	.	4f
.	2F	2B-	[2f
=144	=144	=144	=144
0C	0G	0c	2f]
.	.	.	4e
.	.	.	4d
.	.	.	1e
=145	=145	=145	=145
[0F	[0F	[0c	[0f
=146	=146	=146	=146
0F]	0F]	0c]	0f]
==	==	==	==
*-	*-	*-	*-
!!!CDT: 1525/^1526/-1594/2/2
!!!OCY: Italia
!!!AGN: Mass (Free)
!!!AST: renaissance, vocal
!!!ASW: Motet 1532 (Penet)
!!!PWK: Masses, Book 3
!!!RNB: Cadence finals: C
!!!YOR: Le Opere Complete, v. 6, p. 62
!!!YOO: Rome, Italy: Fratelli Scalera
!!!END: 1992//
!!!EED: John Miller
!!!YEC: Copyright 2000, John Miller
!!!YEN: United States of America
!!!YEM: Rights to all derivative electronic formats reserved.
!!!YEM: Refer to licensing agreement for further details.
!!!YEM: This file must be accompanied by the licensing agreement.
!!!YEM: A copy of the licensing agreement may be found at http://www.music-cog.ohio-state.edu/HumdrumDatabases/Palestrina/license.txt
!!!EMD: converted to Humdrum by Bret Aarden
